modules/hawcons-filled/icons/file-ppt.svg

<?xml version="1.0" encoding="UTF-8" standalone="no"?>
<svg width="32px" height="32px" viewBox="0 0 32 32" version="1.1" xmlns="http://www.w3.org/2000/svg" xmlns:xlink="http://www.w3.org/1999/xlink" xmlns:sketch="http://www.bohemiancoding.com/sketch/ns">
    <!-- Generator: Sketch 3.0.3 (7891) - http://www.bohemiancoding.com/sketch -->
    <title>icon 33 file ppt</title>
    <desc>Created with Sketch.</desc>
    <defs></defs>
    <g id="Page-1" stroke="none" stroke-width="1" fill="none" fill-rule="evenodd" sketch:type="MSPage">
        <g id="icon-33-file-ppt" sketch:type="MSArtboardGroup" fill="#929292">
            <path d="M8.00684834,10 C6.34621185,10 5,11.3422643 5,12.9987856 L5,20.0012144 C5,21.6573979 6.33599155,23 8.00684834,23 L24.9931517,23 C26.6537881,23 28,21.6577357 28,20.0012144 L28,12.9987856 C28,11.3426021 26.6640085,10 24.9931517,10 L8.00684834,10 L8.00684834,10 Z M14,15 L14,20 L15,20 L15,17 L16.9951185,17 C18.102384,17 19,16.1122704 19,15 C19,13.8954305 18.1061002,13 16.9951185,13 L14,13 L14,15 L14,15 Z M15,14 L15,16 L17.0010434,16 C17.5527519,16 18,15.5561352 18,15 C18,14.4477153 17.5573397,14 17.0010434,14 L15,14 L15,14 Z M8,15 L8,20 L9,20 L9,17 L10.9951185,17 C12.102384,17 13,16.1122704 13,15 C13,13.8954305 12.1061002,13 10.9951185,13 L8,13 L8,15 L8,15 Z M9,14 L9,16 L11.0010434,16 C11.5527519,16 12,15.5561352 12,15 C12,14.4477153 11.5573397,14 11.0010434,14 L9,14 L9,14 Z M22,14 L22,20 L23,20 L23,14 L25,14 L25,13 L20,13 L20,14 L22,14 L22,14 Z" id="file-ppt" sketch:type="MSShapeGroup"></path>
        </g>
    </g>
</svg>

<svg width="32" height="32" viewBox="0 0 32 32" xmlns="http://www.w3.org/2000/svg"><path d="M8.007 10A3.003 3.003 0 0 0 5 12.999V20A2.996 2.996 0 0 0 8.007 23h16.986A3.003 3.003 0 0 0 28 20.001V13A2.996 2.996 0 0 0 24.993 10H8.007zM14 15v5h1v-3h1.995a2 2 0 0 0 0-4H14v2zm1-1v2h2.001A.997.997 0 0 0 18 15c0-.552-.443-1-.999-1H15zm-7 1v5h1v-3h1.995a2 2 0 0 0 0-4H8v2zm1-1v2h2.001A.997.997 0 0 0 12 15c0-.552-.443-1-.999-1H9zm13 0v6h1v-6h2v-1h-5v1h2z" fill="#929292" fill-rule="evenodd"/></svg>
